X:1
T:Title
%%score ( 1 2 3 ) ( 4 5 )
L:1/8
Q:1/4=90
M:3/4
K:F
V:1 treble nm="Choir Aahs, Unnamed-000"
V:2 treble 
V:3 treble 
V:4 bass nm="Choir Aahs, Unnamed-001"
V:5 bass 
V:1
 [CF]2 [CA]2 [FB]2 | [Fc]2 [Ec]2 F2 | z2 z2 B2 | [FA]6 | [EG]2 [Fc]2 [GB]2 | [FA]2 [EG]2 [CF]2 | %6
w: By~J.~C.~Kittel~(1732\-1809) * *||||||
 [CE]2 [CF]2 [=B,D]2 | C6 | [EG]2 [EG]2 [FA]2 | [FA]2 [EG]2 [Ec]2 | [Fc]2 [GB]2 [^FA]2 | %11
w: |||||
 G4- [EG]2 | [Fc]2 [Ec]2 [_Ec]2 | [Dd]2 [Fc]2 [FB]2 | [FA]2 [FB]2 [EG]2 | F6 |] %16
w: |||||
V:2
 x6 | x6 | [Fd]2 c2 z E | x6 | x6 | x6 | x6 | x6 | x6 | x6 | x6 | D4 z2 | x6 | x6 | x6 | x6 |] %16
V:3
 x6 | x6 | z2 F4 | x6 | x6 | x6 | x6 | x6 | x6 | x6 | x6 | x6 | x6 | x6 | x6 | x6 |] %16
V:4
 [F,A,]2 [F,A,][E,G,] [D,F,]2 | [C,G,]2 [B,,G,]2 [A,,C]2 | z2 C2 z2 | [F,C]6 | %4
 [C,B,]2 [D,A,]2 [E,G,]2 | [F,C]2 [G,B,]2 [A,C]2 | [G,C]2 [F,A,]2 G,2 | [C,E,]6 | %8
 [C,C]2 [C,C]2 [F,C]2 | [F,C]2 [C,C]2 [B,,G,]2 | z2 D2 z2 | [G,B,]4 [C,C]2 | %12
 [A,C]2 [G,B,]2 [F,A,]2 | [B,,B,]2 [A,,C]2 [B,,D]2 | [C,C]2 [B,,D]2 [C,C]2 | [F,A,]6 |] %16
V:5
 x6 | x6 | [B,,B,]2 A,,B,, [C,C]2 | x6 | x6 | x6 | x6 | x6 | x6 | x6 | [A,,C]2 B,,C, [D,D]2 | x6 | %12
 x6 | x6 | x6 | x6 |] %16

